images/svg-master/iconMicroscope.svg

<svg id="6aad6d6f-b8a0-41c1-b309-36590255130b" data-name="microscope" xmlns="http://www.w3.org/2000/svg" viewBox="0 0 42 54"><title>iconMicroscope</title><path d="M34,45H33V41a6,6,0,0,0-.33-1.94A18.53,18.53,0,0,0,35,30c0-7.57-4.37-14-10.53-16.2A5,5,0,0,0,21,11.1V8a1,1,0,0,0-1-1H19V2a1,1,0,0,0-1-1H12a1,1,0,0,0-1,1V7H10A1,1,0,0,0,9,8V28a1,1,0,0,0,1,1h1v5a1,1,0,0,0,1,1h6a1,1,0,0,0,1-1V29h1a1,1,0,0,0,1-1V20.9a5,5,0,0,0,2.27-1.14C26.55,21.33,29,25.29,29,30a12.79,12.79,0,0,1-1,5.08A5.94,5.94,0,0,0,21.35,39H9a1,1,0,0,0,0,2H21v4H6a5,5,0,0,0-5,5v2a1,1,0,0,0,.29.71A1,1,0,0,0,2,53H40a1,1,0,0,0,1-1A7,7,0,0,0,34,45ZM13,3h4V7H13Zm4,30H13V29h4Zm2-6H11V9h8v2.1a5,5,0,0,0,0,9.8Zm1-8a3,3,0,1,1,3-3A3,3,0,0,1,20,19Zm4.5-.85a5,5,0,0,0,.49-2c4.65,2.23,8,7.54,8,13.83a16.67,16.67,0,0,1-1.53,7,6,6,0,0,0-1.62-1.29A14.83,14.83,0,0,0,31,30C31,24.78,28.39,20.22,24.5,18.15ZM3,51V50a3,3,0,0,1,3-3H22a1,1,0,0,0,1-1V41a4,4,0,0,1,8,0v5a1,1,0,0,0,1,1h2a5,5,0,0,1,4.9,4ZM27,39a2,2,0,1,0,2,2A2,2,0,0,0,27,39Z"/></svg>

<?xml version="1.0" encoding="utf-8"?>
<!-- Generator: Adobe Illustrator 21.1.0, SVG Export Plug-In . SVG Version: 6.00 Build 0)  -->
<svg version="1.1" id="microscope" xmlns="http://www.w3.org/2000/svg" xmlns:xlink="http://www.w3.org/1999/xlink" x="0px" y="0px"
	 viewBox="0 0 42 54" style="enable-background:new 0 0 42 54;" xml:space="preserve">
<title>iconMicroscope</title>
<path d="M34,45h-1v-4c0-0.7-0.1-1.3-0.3-1.9c1.5-2.8,2.3-5.9,2.3-9.1c0-7.6-4.4-14-10.5-16.2c-0.7-1.4-2-2.4-3.5-2.7V8
	c0-0.6-0.4-1-1-1h-1V2c0-0.6-0.4-1-1-1h-6c-0.6,0-1,0.4-1,1v5h-1C9.4,7,9,7.4,9,8v20c0,0.6,0.4,1,1,1h1v5c0,0.6,0.4,1,1,1h6
	c0.6,0,1-0.4,1-1v-5h1c0.6,0,1-0.4,1-1v-7.1c0.8-0.2,1.6-0.6,2.3-1.1C26.5,21.3,29,25.3,29,30c0,1.7-0.3,3.5-1,5.1
	c-2.9-0.5-5.7,1.2-6.6,3.9H9c-0.6,0-1,0.4-1,1s0.4,1,1,1h12v4H6c-2.8,0-5,2.2-5,5v2c0,0.3,0.1,0.5,0.3,0.7C1.5,52.9,1.7,53,2,53h38
	c0.6,0,1-0.4,1-1C41,48.1,37.9,45,34,45z M13,3h4v4h-4V3z M17,33h-4v-4h4V33z M19,27h-8V9h8v2.1c-2.7,0.5-4.5,3.2-3.9,5.9
	c0.4,2,1.9,3.5,3.9,3.9V27z M20,19c-1.7,0-3-1.3-3-3s1.3-3,3-3s3,1.3,3,3S21.7,19,20,19z M24.5,18.1c0.3-0.6,0.5-1.3,0.5-2
	c4.6,2.2,8,7.5,8,13.8c0,2.4-0.5,4.8-1.5,7c-0.5-0.5-1-1-1.6-1.3C30.6,33.9,31,32,31,30C31,24.8,28.4,20.2,24.5,18.1z M3,51v-1
	c0-1.7,1.3-3,3-3h16c0.6,0,1-0.4,1-1v-5c0-2.2,1.8-4,4-4s4,1.8,4,4v5c0,0.6,0.4,1,1,1h2c2.4,0,4.4,1.7,4.9,4H3z M27,39
	c-1.1,0-2,0.9-2,2s0.9,2,2,2s2-0.9,2-2S28.1,39,27,39z"/>
</svg>
